Catalina-dark/actions/22/view-calendar-upcoming-events.svg

<svg xmlns="http://www.w3.org/2000/svg" viewBox="0 0 22 22">
  <defs id="defs3051">
    <style type="text/css" id="current-color-scheme">
      .ColorScheme-Text {
        color:#f2f2f2
      }
      </style>
  </defs>
 <path 
     style="fill:currentColor;fill-opacity:1;stroke:none"      
	 class="ColorScheme-Text"
        d="M 4 3 C 3.4459836 3 3 3.4459836 3 4 L 3 18 C 3 18.554016 3.4459836 19 4 19 L 18 19 C 18.554016 19 19 18.554016 19 18 L 19 4 C 19 3.4459836 18.554016 3 18 3 L 4 3 z M 10.998047 6.2539062 C 11.349616 6.2539062 11.632812 6.5566334 11.632812 6.9316406 L 11.632812 12.046875 C 11.632812 12.421882 11.349616 12.722656 10.998047 12.722656 C 10.646478 12.722656 10.363281 12.421882 10.363281 12.046875 L 10.363281 6.9316406 C 10.363281 6.5566334 10.646478 6.2539062 10.998047 6.2539062 z M 11 13.923828 C 11.252438 13.923828 11.466886 14.011808 11.644531 14.189453 C 11.822156 14.367098 11.912109 14.581546 11.912109 14.833984 C 11.912109 15.086423 11.822176 15.302824 11.644531 15.480469 C 11.466886 15.658093 11.252438 15.746094 11 15.746094 C 10.747562 15.746094 10.533114 15.658114 10.355469 15.480469 C 10.177844 15.302824 10.087891 15.086423 10.087891 14.833984 C 10.087891 14.581546 10.177824 14.367098 10.355469 14.189453 C 10.533114 14.011828 10.747562 13.923828 11 13.923828 z "
     />
</svg>

<svg viewBox="0 0 22 22" xmlns="http://www.w3.org/2000/svg">
<defs>
<style id="current-color-scheme" type="text/css">.ColorScheme-Text {
        color:#dedede
      }</style>
</defs>
<path class="ColorScheme-Text" d="m4 3c-0.55402 0-1 0.44598-1 1v14c0 0.55402 0.44598 1 1 1h14c0.55402 0 1-0.44598 1-1v-14c0-0.55402-0.44598-1-1-1h-14zm6.998 3.2539c0.35157 0 0.63476 0.30273 0.63476 0.67773v5.1152c0 0.37501-0.2832 0.67578-0.63476 0.67578s-0.63477-0.30077-0.63477-0.67578v-5.1152c0-0.37501 0.2832-0.67773 0.63477-0.67773zm0.001953 7.6699c0.25244 0 0.46689 0.08798 0.64453 0.26562 0.17762 0.17764 0.26758 0.39209 0.26758 0.64453 0 0.25244-0.089933 0.46884-0.26758 0.64648-0.17764 0.17762-0.39209 0.26562-0.64453 0.26562s-0.46689-0.08798-0.64453-0.26562c-0.17762-0.17764-0.26758-0.39405-0.26758-0.64648 0-0.25244 0.089933-0.46689 0.26758-0.64453 0.17764-0.17762 0.39209-0.26562 0.64453-0.26562z" fill="currentColor"/>
</svg>
